X:1
T:Weinacht
T:Weinacht
T:Karl Pommeroy Harrington (1861–1953)
T:Public Domain Courtesy of the Cyber Hymnal™
C:Karl Pommeroy Harrington (1861–1953)
Z:Public Domain
Z:Courtesy of the Cyber Hymnal™
%%score ( 1 2 ) ( 3 4 )
L:1/8
Q:1/4=110
M:6/8
K:Db
V:1 treble 
V:2 treble 
V:3 bass 
V:4 bass 
V:1
 [DF] | [DF]2 [D=E] [DF]2 [DA] | [CA]2 [CE] [CE]2 [CF] | [CG]2 [=B,F] [CG]2 [CE] | %4
 [DA]3- [DA]2 [DF] | [DF]2 [D=E] [DF]2 [B,A] | [CA]2 [CE] [CE]2 [EA] | [=GB]2 [GB] [Gc]2 [Gd] | %8
 [Ge]3- [Ge]2 [Fd] | [Fd]2 [Fd] [Fc]2 [FB] | [Gd]2 [Gd] [Gc]2 [GB] | [FA]2 [F=A] [DB]2 [EB] | %12
 [F=A]3- [FA]2 c | c2 =G =A z [Fc] | [=Ec]2 [E=G] [F=A]2 [Fc] | [Gc]2 [Gc] [Gd]2 [GB] | %16
 [Ge]3- [Ge]2 z | dcB dcB | [Gd]3 [Gc]2 [GB] | A=GA BAG | [DF]3- [DF] z2 | F3 G2 A | %22
 [B,DGB]3 c2 [E_Gd] | [GAe-]3 [GAe]3 | [FAd]3- [FAd]2 x |] %25
V:2
 x | x6 | x6 | x6 | x6 | x6 | x6 | x6 | x6 | x6 | x6 | x6 | x5 c | c2 =G =A x2 | x6 | x6 | x6 | %17
 F3 F3 | x6 | =G2 A C2 [CG] | x6 | [_CDF]3 [CDG]2 [CDA] | x3 [E=Gc]2 x | x6 | x6 |] %25
V:3
 [D,A,] | [D,A,]2 [D,A,] [A,,A,]2 [F,A,] | [E,G,]2 [E,G,] [A,,G,]2 [A,,F,] | %3
 [A,,E,]2 [A,,=D,] [A,,E,]2 [G,A,] | [F,A,]3- [F,A,]2 [D,A,] | [D,A,]2 [D,B,] [D,A,]2 [=D,F,] | %6
 E,2 [E,A,] [E,A,]2 [E,C] | [E,D]2 [E,D] [E,C]2 [E,B,] | [A,C]3- [A,C]2 [D,D] | %9
 [D,A,]2 [D,A,] [A,,A,]2 [A,,A,] | [E,A,]2 [E,B,] [A,,C]2 [A,,C] | [D,D]2 [D,_C] [G,B,]2 [G,=C] | %12
 [F,C]3- [F,C]2 C | C2 =G, =A, z [F,A,] | [C,=G,]2 [C,C] [F,C]2 [F,=A,] | A,2 [A,E] [A,D]2 [A,D] | %16
 [A,C]3- [A,C]2 z | [D,A,]3 [A,,A,]3 | A,2 B, [A,,C]2 [E,D] | E2 A, G,F,[A,,E,] | D,3- D, z2 | %21
 [D,A,]3 [E,A,]2 [F,A,] | G,3 [E,D]2 [E,D] | [A,,-A,-D]3 [A,,A,C]3 | [D,A,D]3- [D,A,D]3 |] %25
V:4
 x | x6 | x6 | x6 | x6 | x6 | E,2 x4 | x6 | x6 | x6 | x6 | x6 | x5 C | C2 =G, =A, x2 | x6 | %15
 A,2 x4 | x6 | x6 | E,3 x3 | C,3 A,,2 x | D,3- D, x2 | x6 | G,3 x3 | x6 | x6 |] %25

